X: 20353
T: GLADSMUIR
C: William McGibbon
Q: "Moderate."
%R: air, strathspey
B: W. Hamilton "Universal Tune-Book" Vol. 2 Glasgow 1846 p.35 #3
S: http://s3-eu-west-1.amazonaws.com/itma.dl.printmaterial/book_pdfs/hamiltonvol2web.pdf
Z: 2016 John Chambers <jc:trillian.mit.edu>
N: The first (pickup) note should probably be A.
N: The slurs in bars 3,14 are "broken"; it's not clear what this means.
M: C
L: 1/8
K: D
% - - - - - - - - - - - - - - - - - - - - - - - - -
G2 |\
d4 A4 | (F>GA>B A2)d2 |\
(c>Bc>A d2)f2 | {f2}e6 A2 |\
e4 f4 | (e>dc>d e2)f2 |\
e2(f>e) d2c2 | {c2}d6 B2 |\
e4 d4 | (c>Bc>d e2)c2 |\
(B>AB>c d2)B2 | c6 d2 |
e2(f>e) f2A2 | ({A2}^G4 A2)d2 |\
c4 B4 | A6 :|\
|: A2 |\
d2(de) (fe)(dc) | (BAGA B2)B2 |\
(efgf e2)d2 | {d2}c6 A2 |\
d2(3(def) e2(3(efg) | (fefg a2)d2 |\
e4 c4 | d6 :|
% - - - - - - - - - - - - - - - - - - - - - - - - -
%%begintext align
%% Hamilton of Bangour's verses beginning
%% "As over Gladsmuir's blood-stain'd field,"
%% are sung to this air.
%%endtext
%%sep 1 1 300

%%sep 1 1 500
%%sep 1 1 500

